X: 19333
T: Jack Maple
R: slip jig
M: 9/8
K: Bminor
|:fBB fBB dcA|fBB fBB cde|fBB fBB dcA|1 d2c AFA B3:|2 d2c AFA B2f||
|:g2f ede fdB|g2f ede fBB|g2f ede fdB|1 d2c AFA B3:|2 d2c AFA B2F||
G2A Bdc BAF|G2A Bdc B2F|G2A Bdc BAB|d2c AFA B2F|
G2A Bdc BAF|G2A Bdc B2f|g2f ede fdB|d2c AFA B3||

